X:36031
T: Quarries' Jig
T: Mrs Muir McKenzie's Fancie
C: Mr Sharp of Hoddom
R: jig
B: RSCDS 36-3
B: Malcolm MacDonald's "A Second Collection of Strathspey Reels" p.12 (1789)
Z: 1997 by John Chambers <jc:trillian.mit.edu>
M: 6/8
L: 1/8
%--------------------
K: A
|: "A"Ace ece | "D"fdf "A"ece | "D"fga "A"edc | "B7"BcA "E7"GFE \
 | "A"Ace ece | "D"fdf "A"ece | "D"fga "A"ecA | "E7"B3 "A"A3 :|
[| "A"a3 ecA | "D"f3 "A"ecA | "A"a3 ecA | "E7"GAB BGE \
 | "A"a3 ecA | "D"f3 fga | "E"efg "A"aec | "E7"B3 "A"A3 |]
[| "A"a3 ecA | "D"f3 "A"ecA | "A"a3 "F#m"ecA | "B7"FGA "E"BGE \
 | "F#m"agf "E"efg | "D"agf "A"edc | "Bm"dbd "A"cac | "E7"B3 "A"A3 |]
